X: 16306
T: Groatie Buckie Mannie
R: jig
M: 6/8
K: Dmajor
|:daf adf|fAA aAA|daf adf|faf gfe|
daf adf|fAA aAA|daf adf|egc d2 A:|
dAA aAA|fAA aAA|dAA aAA|faf gfe|
dAA aAA|fAA aAA|dAA aAA|egc d2 A|
dAA aAA|fAA aAA|dAA aAA|faf gfe|
daf adf|fAA aAA|daf adf|egc d2||

